brandFactory_export/1.Light/Status grafica _1Light.svg

<?xml version="1.0" encoding="UTF-8"?>
<svg width="24px" height="24px" viewBox="0 0 24 24" version="1.1" xmlns="http://www.w3.org/2000/svg" xmlns:xlink="http://www.w3.org/1999/xlink">
    <title>1.Light/Status grafica _1Light</title>
    <g id="Symbols" stroke="none" stroke-width="1" fill="none" fill-rule="evenodd">
        <g id="1.Light/Status-grafica-_1Light" fill="#5CB615" fill-rule="nonzero">
            <path d="M21.5193277,6.27058824 C20.9008403,6.27058824 20.4,5.76638655 20.4,5.14789916 C20.4,4.52941176 20.9008403,4.02184874 21.5193277,4.02184874 C22.1378151,4.02184874 22.6386555,4.52605042 22.6386555,5.14789916 C22.6386555,5.7697479 22.1344538,6.27058824 21.5193277,6.27058824 M16.205042,15.0638655 C15.5865546,15.0605042 15.0857143,14.5596639 15.0857143,13.9378151 C15.0857143,13.3193277 15.5865546,12.8151261 16.205042,12.8151261 C16.8235294,12.8151261 17.3277311,13.3193277 17.3243865,13.9378151 C17.3243865,14.5563025 16.8235294,15.0638655 16.205042,15.0638655 M7.02857143,11.0134454 C6.41008403,11.0134454 5.9092437,10.512605 5.9092437,9.89411765 L5.9092437,9.88739496 C5.9092437,9.26890756 6.41008403,8.76470588 7.02857143,8.76470588 C7.64705882,8.76806723 8.14789916,9.26890756 8.14455464,9.88739496 C8.14789916,10.5058824 7.64705882,11.010084 7.02857143,11.0134454 M2.10756303,19.7563025 C1.48907563,19.7563025 0.988235294,19.2521008 0.988235294,18.6336134 C0.988235294,18.0151261 1.48907563,17.5109244 2.10756303,17.5109244 C2.72605042,17.5142857 3.22689076,18.0151261 3.22689076,18.6336134 C3.22352941,19.2521008 2.72268908,19.7563025 2.10756303,19.7563025 M21.5159664,3.02689076 C20.3563025,3.02689076 19.4117647,3.97815126 19.4117647,5.14453782 C19.4117647,5.72605042 19.6470588,6.25378151 20.0268908,6.64033613 L16.8806723,11.9445378 C16.6621849,11.8638655 16.4336134,11.8235294 16.2016807,11.8235294 C15.5193277,11.8235294 14.9210084,12.1563025 14.5344538,12.6605042 L9.08907563,10.2571429 C9.11260504,10.1361345 9.12605042,10.0117647 9.12605042,9.88739496 C9.12605042,8.7210084 8.18151261,7.77310924 7.02184874,7.77310924 C5.85882353,7.77310924 4.91764706,8.72436975 4.91764706,9.8907563 C4.91764706,10.4823529 5.1697479,11.0336134 5.58991597,11.4302521 L2.6789916,16.6067227 C2.49411765,16.5495798 2.29915966,16.5193277 2.10420168,16.5159664 C0.944537815,16.5159664 0,17.4638655 0,18.6302521 C0,19.7966387 0.944537815,20.7478992 2.10420168,20.7478992 C3.27058824,20.7411765 4.21176471,19.789916 4.20504202,18.6235294 C4.20168067,18.0420168 3.95966387,17.4907563 3.53613445,17.0941176 L6.44705882,11.9210084 C6.63529412,11.9747899 6.82689076,12.005042 7.02521008,12.005042 C7.70420168,12.005042 8.30588235,11.6722689 8.68907563,11.1680672 L14.1344538,13.5714286 C14.1109244,13.692437 14.097479,13.8168067 14.097479,13.9411765 C14.097479,15.107563 15.0420168,16.0588235 16.2016807,16.0588235 C17.3680672,16.0554622 18.312605,15.1042017 18.3058824,13.9378151 C18.302521,13.3932773 18.0907563,12.8722689 17.7142857,12.4823529 L20.8739496,7.14789916 C21.0789916,7.21512605 21.2907563,7.25882353 21.5159664,7.25882353 C22.6789916,7.25882353 23.620177,6.31092437 23.620177,5.14453782 C23.6235294,3.97815126 22.6789916,3.02689076 21.5159664,3.02689076" id="Status-grafica-_1Light"></path>
        </g>
    </g>
</svg>

<svg width="24" height="24" viewBox="0 0 24 24" xmlns="http://www.w3.org/2000/svg"><path d="M21.52 6.27a1.125 1.125 0 010-2.249c.618 0 1.119.505 1.119 1.127s-.505 1.123-1.12 1.123m-5.314 8.793a1.125 1.125 0 010-2.249 1.125 1.125 0 010 2.249m-9.176-4.05c-.619 0-1.12-.501-1.12-1.12v-.007c0-.618.501-1.122 1.12-1.122.618.003 1.119.504 1.116 1.122a1.122 1.122 0 01-1.116 1.126m-4.921 8.743a1.122 1.122 0 010-2.245c.618.003 1.119.504 1.119 1.123a1.126 1.126 0 01-1.12 1.122m19.409-16.73c-1.16 0-2.104.952-2.104 2.119 0 .581.235 1.109.615 1.495l-3.146 5.305a1.954 1.954 0 00-.68-.121c-.682 0-1.28.332-1.667.837L9.09 10.257c.024-.12.037-.245.037-.37a2.112 2.112 0 00-2.104-2.114A2.112 2.112 0 005.59 11.43l-2.911 5.177a2.074 2.074 0 00-.575-.091C.944 16.516 0 17.464 0 18.63c0 1.167.945 2.118 2.104 2.118a2.113 2.113 0 001.432-3.654l2.911-5.173c.188.054.38.084.578.084.68 0 1.28-.333 1.664-.837l5.445 2.403a1.943 1.943 0 00-.037.37c0 1.167.945 2.118 2.105 2.118a2.11 2.11 0 001.512-3.577l3.16-5.334c.205.067.417.11.642.11a2.11 2.11 0 002.104-2.113 2.11 2.11 0 00-2.104-2.118" fill="#5CB615" fill-rule="nonzero"/></svg>
